;MINX:18.5
;MAXX:81.5
;MINY:25.0
;MAXY:85.0
;MINZ:0.0
;MAXZ:35.9
;MachineType:ENTINA TINA2S
;FilamentType:PLA
;Extruder0Temperature:200
;BedTemperature:50
;InfillDensity:10
;FLAVOR:Marlin
;TIME:10076
;FilamentUsed:4351.3
;Layer height: 0.15

;Generated with Cura_SteamEngine 4.10
M82 ;absolute extrusion mode
;(**** start.gcode for tina2s****)
M203 Z15
M104 S150
G28 Z
G28 X Y; Home extruder
G1 X55 Y55 F1000
G29
M107 ; Turn off fan
G90 ; Absolute positioning
M82 ; Extruder in absolute mode
M109 S215
G92 E0 ; Reset extruder position
G1 X90 Y3 Z0.27 F2000
G1 X20 Y3 Z0.27 E15 F1000
G92 E0 ; Reset extruder position
M203 Z5

M140 S50
M104 S215
G92 E0
G92 E0
G1 F1680 E-3
;LAYER_COUNT:230
;LAYER:-7
M107
G0 F3900 X24.706 Y27.761 Z0.35
;TYPE:SUPPORT-INTERFACE
G1 F1680 E0
G1 F1200 X25.129 Y27.415 E0.06362
G1 X25.318 Y27.278 E0.09079
G1 X25.759 Y26.987 E0.1523
G1 X25.95 Y26.875 E0.17807
G1 X26.436 Y26.62 E0.24196
G1 X26.611 Y26.539 E0.26441
G1 X27.135 Y26.328 E0.33017
G1 X27.338 Y26.257 E0.3552
G1 X27.848 Y26.11 E0.41699
G1 X28.078 Y26.055 E0.44452
G1 X28.576 Y25.963 E0.50347
G1 X28.828 Y25.93 E0.53306
G1 X29.58 Y25.873 E0.62085
G1 X29.757 Y25.872 E0.64146
G1 X30.336 Y25.887 E0.70888
G1 X30.588 Y25.906 E0.7383
G1 X31.105 Y25.972 E0.79897
G1 X31.328 Y26.012 E0.82535
G1 X31.851 Y26.132 E0.88781
G1 X32.065 Y26.193 E0.91371
G1 X32.587 Y26.371 E0.97792
G1 X32.766 Y26.441 E1.00029
G1 X33.267 Y26.669 E1.06437
G1 X33.47 Y26.773 E1.09092
G1 X33.935 Y27.044 E1.15357
G1 X34.115 Y27.161 E1.17856
G1 X34.554 Y27.479 E1.24167
G1 X34.876 Y27.751 E1.29073
G1 X35.403 Y28.165 E1.36875
G1 X35.989 Y28.516 E1.44827
G1 X36.614 Y28.79 E1.52771
G1 X37.269 Y28.984 E1.60723
G1 X37.943 Y29.093 E1.68671
G1 X38.626 Y29.116 E1.76626
G1 X39.305 Y29.052 E1.84566
G1 X39.972 Y28.904 E1.92519
G1 X40.614 Y28.672 E2.00466
G1 X41.223 Y28.362 E2.08421
G1 X41.782 Y27.979 E2.16309
G1 X42.163 Y27.655 E2.22131
G1 X42.339 Y27.511 E2.24778
G1 X42.753 Y27.206 E2.30764
G1 X42.96 Y27.068 E2.3366
G1 X43.399 Y26.809 E2.39594
G1 X43.61 Y26.697 E2.42375
G1 X44.092 Y26.473 E2.48562
G1 X44.302 Y26.388 E2.51199
G1 X44.812 Y26.21 E2.57488
G1 X45.022 Y26.148 E2.60036
G1 X45.546 Y26.022 E2.6631
G1 X45.765 Y25.982 E2.68902
G1 X46.278 Y25.912 E2.74929
G1 X46.518 Y25.892 E2.77733
G1 X47.194 Y25.871 E2.85606
G1 X47.434 Y25.876 E2.884
G1 X48.049 Y25.921 E2.95579
G1 X48.262 Y25.948 E2.98078
G1 X48.809 Y26.044 E3.04543
G1 X49.007 Y26.089 E3.06907
G1 X49.529 Y26.234 E3.13213
G1 X49.733 Y26.303 E3.1572
G1 X50.243 Y26.502 E3.22093
G1 X50.445 Y26.594 E3.24677
G1 X50.93 Y26.843 E3.31024
G1 X51.114 Y26.949 E3.33496
G1 X51.558 Y27.235 E3.39644
G1 X51.755 Y27.376 E3.42464
G1 X52.162 Y27.702 E3.48534
G1 X52.34 Y27.86 E3.51305
G1 X52.814 Y28.329 E3.59067
G1 X52.902 Y28.421 E3.60549
G1 X53.36 Y28.927 E3.68494
G1 X53.401 Y28.975 E3.69229
G1 X53.734 Y29.388 E3.75405
G1 X53.808 Y29.484 E3.76816
G1 X54.424 Y30.315 E3.88858
G1 X54.482 Y30.395 E3.90008
G1 X54.804 Y30.867 E3.96659
G1 X55.215 Y31.395 E4.04448
G1 X55.7 Y31.876 E4.124
G1 X56.24 Y32.293 E4.20342
G1 X56.83 Y32.638 E4.28299
G1 X57.457 Y32.906 E4.36236
G1 X58.115 Y33.093 E4.442
G1 X58.79 Y33.194 E4.52145
G1 X59.473 Y33.21 E4.60098
G1 X60.151 Y33.14 E4.68032
G1 X60.817 Y32.985 E4.75992
G1 X61.456 Y32.747 E4.8393
G1 X62.061 Y32.431 E4.91876
G1 X62.622 Y32.04 E4.99836
G1 X63.128 Y31.582 E5.07781
G1 X63.572 Y31.063 E5.15732
G1 X63.945 Y30.497 E5.23623
G1 X64.117 Y30.169 E5.27934
G1 X64.342 Y29.704 E5.33948
G1 X64.464 Y29.482 E5.36897
G1 X64.742 Y29.028 E5.43094
G1 X64.869 Y28.842 E5.45716
G1 X65.194 Y28.416 E5.51953
G1 X65.641 Y27.913 E5.59787
G1 X65.833 Y27.72 E5.62956
G1 X66.288 Y27.309 E5.70093
G1 X66.473 Y27.157 E5.72881
G1 X66.897 Y26.845 E5.79009
G1 X67.077 Y26.725 E5.81527
G1 X67.544 Y26.448 E5.87848
G1 X67.736 Y26.347 E5.90373
G1 X68.226 Y26.119 E5.96665
G1 X68.436 Y26.034 E5.99302
G1 X68.946 Y25.856 E6.0559
G1 X69.156 Y25.794 E6.08139
G1 X69.68 Y25.668 E6.14413
G1 X69.899 Y25.628 E6.17004
G1 X70.422 Y25.556 E6.2315
G1 X71.108 Y25.517 E6.31149
G1 X71.27 Y25.513 E6.33035
G1 X73.222 Y25.513 E6.55759
G1 X73.363 Y25.517 E6.57401
G1 X73.967 Y25.547 E6.6444
G1 X74.176 Y25.568 E6.66886
G1 X74.719 Y25.65 E6.73278
G1 X74.914 Y25.689 E6.75593
G1 X75.454 Y25.827 E6.82082
G1 X75.654 Y25.889 E6.84519
G1 X76.162 Y26.075 E6.90817
G1 X76.382 Y26.167 E6.93593
G1 X76.857 Y26.397 E6.99736
G1 X77.043 Y26.499 E7.02206
G1 X77.5 Y26.779 E7.08445
G1 X77.7 Y26.915 E7.1126
G1 X78.112 Y27.228 E7.17283
G1 X78.628 Y27.686 E7.25315
G1 X78.826 Y27.884 E7.28575
G1 X79.229 Y28.329 E7.35564
G1 X79.384 Y28.518 E7.38409
G1 X79.7 Y28.947 E7.44612
G1 X79.816 Y29.122 E7.47056
G1 X80.091 Y29.586 E7.53335
G1 X80.194 Y29.781 E7.55902
G1 X80.424 Y30.276 E7.62256
G1 X80.505 Y30.476 E7.64768
G1 X80.688 Y30.999 E7.71218
G1 X80.748 Y31.205 E7.73716
G1 X80.867 Y31.701 E7.79653
G1 X80.915 Y31.954 E7.82651
G1 X80.986 Y32.474 E7.88761
G1 X81.024 Y33.145 E7.96584
G1 X81.028 Y33.306 E7.98459
G1 X81.028 Y76.486 E13.01119
G1 X81.024 Y76.636 E13.02866
G1 X80.995 Y77.23 E13.09789
G1 X80.973 Y77.448 E13.1234
G1 X80.891 Y77.992 E13.18744
G1 X80.852 Y78.187 E13.21059
G1 X80.714 Y78.727 E13.27547
G1 X80.652 Y78.927 E13.29985
G1 X80.468 Y79.43 E13.3622
G1 X80.374 Y79.655 E13.39058
G1 X80.144 Y80.13 E13.45202
G1 X80.042 Y80.316 E13.47671
G1 X79.762 Y80.773 E13.53911
G1 X79.626 Y80.973 E13.56726
G1 X79.313 Y81.384 E13.6274
G1 X78.855 Y81.901 E13.7078
G1 X78.663 Y82.094 E13.73949
G1 X78.208 Y82.505 E13.81087
G1 X78.026 Y82.655 E13.83833
G1 X77.609 Y82.962 E13.89861
G1 X77.402 Y83.1 E13.92757
G1 X76.963 Y83.359 E13.9869
G1 X76.752 Y83.471 E14.01471
G1 X76.27 Y83.695 E14.07658
G1 X76.06 Y83.78 E14.10296
G1 X75.55 Y83.958 E14.16584
G1 X75.34 Y84.02 E14.19133
G1 X74.816 Y84.146 E14.25407
G1 X74.597 Y84.186 E14.27998
G1 X74.074 Y84.258 E14.34144
G1 X73.388 Y84.297 E14.42142
G1 X73.226 Y84.301 E14.44029
G1 X71.038 Y84.302 E14.69499
G1 X62.969 Y84.487 E15.63456
G1 X62.849 Y84.483 E15.64853
G1 X62.187 Y84.45 E15.72569
G1 X62.101 Y84.444 E15.73573
G1 X60.369 Y84.273 E15.93833
G1 X60.228 Y84.256 E15.95487
G1 X59.614 Y84.165 E16.02712
G1 X59.453 Y84.133 E16.04623
G1 X58.771 Y83.96 E16.12814
G1 X57.01 Y83.424 E16.34242
G1 X56.329 Y83.178 E16.42671
G1 X56.237 Y83.141 E16.43825
G1 X55.656 Y82.864 E16.51318
G1 X54.037 Y82 E16.72681
G1 X53.959 Y81.956 E16.73723
G1 X53.297 Y81.553 E16.82745
G1 X53.209 Y81.494 E16.83979
G1 X52.77 Y81.163 E16.90379
G1 X52.656 Y81.073 E16.9207
G1 X51.346 Y79.996 E17.11812
G1 X51.24 Y79.905 E17.13438
G1 X50.718 Y79.43 E17.21654
G1 X50.263 Y78.928 E17.29541
G1 X50.172 Y78.822 E17.31167
G1 X49.092 Y77.508 E17.50967
G1 X48.995 Y77.385 E17.52791
G1 X48.644 Y76.917 E17.59601
G1 X48.212 Y76.209 E17.69256
G1 X48.162 Y76.122 E17.70424
G1 X47.4 Y74.695 E17.89256
G1 X47.048 Y74.124 E17.97064
G1 X46.618 Y73.594 E18.05009
G1 X46.125 Y73.121 E18.12963
G1 X45.576 Y72.715 E18.20911
G1 X44.981 Y72.382 E18.28849
G1 X44.348 Y72.126 E18.36797
G1 X43.688 Y71.951 E18.44746
G1 X43.016 Y71.863 E18.52635
G1 X42.65 Y71.85 E18.56899
G1 X30.328 Y71.85 E20.0034
G1 X30.187 Y71.846 E20.01982
G1 X29.583 Y71.816 E20.09022
G1 X29.374 Y71.795 E20.11467
G1 X28.831 Y71.713 E20.1786
G1 X28.636 Y71.674 E20.20175
G1 X28.096 Y71.536 E20.26663
G1 X27.894 Y71.473 E20.29126
G1 X27.388 Y71.288 E20.35398
G1 X27.168 Y71.196 E20.38174
G1 X26.693 Y70.966 E20.44317
G1 X26.504 Y70.862 E20.46828
G1 X26.047 Y70.582 E20.53068
G1 X25.85 Y70.448 E20.55841
G1 X25.439 Y70.135 E20.61855
G1 X24.904 Y69.66 E20.70183
G1 X24.724 Y69.479 E20.73155
G1 X24.318 Y69.03 E20.80202
G1 X24.166 Y68.845 E20.82989
G1 X23.86 Y68.43 E20.88991
G1 X23.723 Y68.224 E20.91871
G1 X23.464 Y67.785 E20.97805
G1 X23.352 Y67.574 E21.00586
G1 X23.126 Y67.087 E21.06836
G1 X23.043 Y66.882 E21.0941
G1 X22.862 Y66.364 E21.15798
G1 X22.802 Y66.158 E21.18295
G1 X22.676 Y65.633 E21.24581
G1 X22.635 Y65.411 E21.27209
G1 X22.56 Y64.86 E21.33682
G1 X22.524 Y64.307 E21.40133
G1 X22.506 Y63.521 E21.49285
G1 X22.504 Y62.894 E21.56584
G1 X22.531 Y62.474 E21.61484
G1 X22.489 Y61.467 E21.73216
G1 X22.485 Y61.316 E21.74975
G1 X22.486 Y54.189 E22.57941
G1 X22.444 Y53.521 E22.65732
G1 X22.315 Y52.85 E22.73686
G1 X22.101 Y52.197 E22.81686
G1 X21.724 Y51.437 E22.91562
G1 X21.461 Y50.998 E22.97519
G1 X21.127 Y50.372 E23.05779
G1 X21.081 Y50.279 E23.06986
G1 X20.589 Y49.235 E23.20422
G1 X20.533 Y49.106 E23.22059
G1 X20.323 Y48.582 E23.2863
G1 X19.956 Y47.558 E23.41293
G1 X19.796 Y47.066 E23.47316
G1 X19.703 Y46.723 E23.51453
G1 X19.449 Y45.709 E23.63622
G1 X19.289 Y44.92 E23.72993
G1 X19.11 Y43.712 E23.87209
G1 X19.044 Y43.011 E23.95406
G1 X18.988 Y41.843 E24.09018
G1 X18.989 Y41.148 E24.17109
G1 X19.044 Y39.991 E24.30592
G1 X19.087 Y39.46 E24.36794
G1 X19.125 Y39.174 E24.40153
G1 X19.286 Y38.079 E24.53037
G1 X19.423 Y37.383 E24.61294
G1 X19.703 Y36.265 E24.74711
G1 X19.856 Y35.728 E24.81211
G1 X19.937 Y35.479 E24.84259
G1 X20.315 Y34.42 E24.97349
G1 X20.521 Y33.905 E25.03806
G1 X20.623 Y33.674 E25.06745
G1 X21.119 Y32.626 E25.20243
G1 X21.448 Y32.009 E25.28382
G1 X22.037 Y31.028 E25.41702
G1 X22.098 Y30.932 E25.43027
G1 X22.477 Y30.369 E25.50927
G1 X23.131 Y29.482 E25.63756
G1 X23.2 Y29.391 E25.65085
G1 X23.581 Y28.921 E25.72129
G1 X24.025 Y28.431 E25.79826
G1 X24.154 Y28.296 E25.82
G1 X24.564 Y27.889 E25.88725
G1 X24.706 Y27.761 E25.9095
G1 F1680 E22.9095
G0 F3900 X24 Y28.458
G1 F1680 E25.9095
G1 F1200 X24 Y68.619 E30.58466
G1 F1680 E27.58466
G0 F3900 X25.6 Y70.257
G1 F1680 E30.58466
G1 F1200 X25.6 Y27.091 E35.60964
G1 F1680 E32.60964
G0 F3900 X27.2 Y26.305
G1 F1680 E35.60964
G1 F1200 X27.2 Y71.209 E40.83694
G1 F1680 E37.83694
G0 F3900 X28.8 Y71.706
G1 F1680 E40.83694
G1 F1200 X28.8 Y25.933 E46.16539
G1 F1680 E43.16539
G0 F3900 X30.4 Y25.892
G1 F1680 E46.16539
G1 F1200 X30.4 Y71.85 E51.51538
G1 F1680 E48.51538
G0 F3900 X32 Y71.85
G1 F1680 E51.51538
G1 F1200 X32 Y26.175 E56.83243
G1 F1680 E53.83243
G0 F3900 X33.6 Y26.849
G1 F1680 E56.83243
G1 F1200 X33.6 Y71.85 E62.07102
G1 F1680 E59.07102
G0 F3900 X35.2 Y71.85
G1 F1680 E62.07102
G1 F1200 X35.2 Y28.006 E67.17492
G1 F1680 E64.17492
G0 F3900 X36.8 Y28.846
G1 F1680 E67.17492
G1 F1200 X36.8 Y71.85 E72.18104
G1 F1680 E69.18104
G0 F3900 X38.4 Y71.85
G1 F1680 E72.18104
G1 F1200 X38.4 Y29.109 E77.15654
G1 F1680 E74.15654
G0 F3900 X40 Y28.893
G1 F1680 E77.15654
G1 F1200 X40 Y71.85 E82.15718
G1 F1680 E79.15718
G0 F3900 X41.6 Y71.85
G1 F1680 E82.15718
G1 F1200 X41.6 Y28.103 E87.24979
G1 F1680 E84.24979
G0 F3900 X43.2 Y26.926
G1 F1680 E87.24979
G1 F1200 X43.2 Y71.887 E92.48372
G1 F1680 E89.48372
G0 F3900 X44.8 Y72.308
G1 F1680 E92.48372
G1 F1200 X44.8 Y26.214 E97.84955
G1 F1680 E94.84955
G0 F3900 X46.4 Y25.901
G1 F1680 E97.84955
G1 F1200 X46.4 Y73.384 E103.37706
G1 F1680 E100.37706
G0 F3900 X48 Y75.818
G1 F1680 E103.37706
G1 F1200 X48 Y25.918 E109.18595
G1 F1680 E106.18595
G0 F3900 X49.6 Y26.259
G1 F1680 E109.18595
G1 F1200 X49.6 Y78.126 E115.22381
G1 F1680 E112.22381
G0 F3900 X51.2 Y79.868
G1 F1680 E115.22381
G1 F1200 X51.2 Y27.005 E121.37762
G1 F1680 E118.37762
G0 F3900 X52.8 Y28.316
G1 F1680 E121.37762
G1 F1200 X52.8 Y81.185 E127.53212
G1 F1680 E124.53212
G0 F3900 X54.4 Y82.193
G1 F1680 E127.53212
G1 F1200 X54.4 Y30.283 E133.57499
G1 F1680 E130.57499
G0 F3900 X56 Y32.108
G1 F1680 E133.57499
G1 F1200 X56 Y83.028 E139.50261
G1 F1680 E136.50261
G0 F3900 X57.6 Y83.603
G1 F1680 E139.50261
G1 F1200 X57.6 Y32.947 E145.3995
G1 F1680 E142.3995
G0 F3900 X59.2 Y33.204
G1 F1680 E145.3995
G1 F1200 X59.2 Y84.068 E151.3206
G1 F1680 E148.3206
G0 F3900 X60.8 Y84.315
G1 F1680 E151.3206
G1 F1200 X60.8 Y32.988 E157.2956
G1 F1680 E154.2956
G0 F3900 X62.4 Y32.194
G1 F1680 E157.2956
G1 F1200 X62.4 Y84.46 E163.37991
G1 F1680 E160.37991
G0 F3900 X64 Y84.464
G1 F1680 E163.37991
G1 F1200 X64 Y30.392 E169.67446
G1 F1680 E166.67446
G0 F3900 X65.6 Y27.959
G1 F1680 E169.67446
G1 F1200 X65.6 Y84.427 E176.24793
G1 F1680 E173.24793
G0 F3900 X67.2 Y84.39
G1 F1680 E176.24793
G1 F1200 X67.2 Y26.652 E182.96923
G1 F1680 E179.96923
G0 F3900 X68.8 Y25.906
G1 F1680 E182.96923
G1 F1200 X68.8 Y84.354 E189.77319
G1 F1680 E186.77319
G0 F3900 X70.4 Y84.317
G1 F1680 E189.77319
G1 F1200 X70.4 Y25.559 E196.61324
G1 F1680 E193.61324
G0 F3900 X72 Y25.513
G1 F1680 E196.61324
G1 F1200 X72 Y84.302 E203.45689
G1 F1680 E200.45689
G0 F3900 X73.6 Y84.285
G1 F1680 E203.45689
G1 F1200 X73.6 Y25.529 E210.29671
G1 F1680 E207.29671
G0 F3900 X75.2 Y25.763
G1 F1680 E210.29671
G1 F1200 X75.2 Y84.054 E217.08239
G1 F1680 E214.08239
G0 F3900 X76.8 Y83.446
G1 F1680 E217.08239
G1 F1200 X76.8 Y26.37 E223.72664
G1 F1680 E220.72664
G0 F3900 X78.4 Y27.484
G1 F1680 E223.72664
G1 F1200 X78.4 Y82.332 E230.11152
G1 F1680 E227.11152
G0 F3900 X80 Y80.385
G1 F1680 E230.11152
G1 F1200 X80 Y29.433 E236.04286
G1 F1680 E233.04286
G0 F3900 X22.4 Y30.483
M104 S200
G1 F1680 E236.04286
G1 F1200 X22.4 Y53.292 E238.69807
G1 F1680 E235.69807
G0 F3900 X20.8 Y49.682
G1 F1680 E238.69807
G1 F1200 X20.8 Y33.3 E240.60511
G1 F1680 E237.60511
G0 F3900 X19.2 Y38.663
G1 F1680 E240.60511
G1 F1200 X19.2 Y44.319 E241.26352
G1 F1680 E238.26352
G0 F3900 X18.938 Y41.848
;TIME_ELAPSED:144.348915
;LAYER:-6
G0 X18.938 Y41.848 Z0.62
;TYPE:SUPPORT
G1 F1680 E241.26352
G1 F1980 X61.526 Y84.437 E245.99616
G1 X60.36 Y84.322 E246.08823
G1 X60.22 Y84.305 E246.09931
G1 X60.104 Y84.287 E246.10853
G1 X19.008 Y43.191 E250.67531
G1 X19.038 Y43.542 E250.703
G1 X19.06 Y43.718 E250.71693
G1 X19.197 Y44.653 E250.79119
G1 X58.461 Y83.917 E255.15439
G1 X57.044 Y83.487 E255.27075
G1 X56.985 Y83.467 E255.27564
G1 X56.6 Y83.328 E255.30781
G1 X19.535 Y46.264 E259.42659
G1 X19.654 Y46.734 E259.46469
G1 X19.68 Y46.833 E259.47273
G1 X19.777 Y47.183 E259.50127
G1 X19.907 Y47.574 E259.53364
G1 X20.094 Y48.095 E259.57714
G1 X44.112 Y72.113 E262.24613
G1 X43.677 Y71.999 E262.28147
G1 X43.011 Y71.912 E262.33425
G1 X42.649 Y71.899 E262.36271
G1 X42.625 Y71.899 E262.3646
G1 X21.045 Y50.319 E264.76267
G1 X21.082 Y50.393 E264.76917
G1 X21.305 Y50.825 E264.80737
G1 X21.421 Y51.029 E264.82581
G1 X21.679 Y51.46 E264.86528
G1 X22.054 Y52.215 E264.93152
G1 X22.244 Y52.791 E264.97918
G1 X41.352 Y71.899 E267.10255
G1 X40.079 Y71.899 E267.20258
G1 X22.435 Y54.254 E269.16332
G1 X22.435 Y55.527 E269.26335
G1 X38.806 Y71.899 E271.08263
G1 X37.533 Y71.899 E271.18266
G1 X22.435 Y56.8 E272.86048
G1 X22.434 Y58.072 E272.96043
G1 X36.261 Y71.899 E274.49695
G1 X34.988 Y71.899 E274.59698
G1 X22.434 Y59.345 E275.99204
G1 X22.434 Y60.618 E276.09206
G1 X33.715 Y71.899 E277.34566
G1 X32.442 Y71.899 E277.44569
G1 X22.457 Y61.913 E278.55533
G1 X22.478 Y62.423 E278.59544
G1 X22.463 Y62.423 E278.59661
G1 X22.466 Y62.576 E278.60864
G1 X22.457 Y62.759 E278.62304
G1 X22.454 Y62.892 E278.63349
G1 X22.454 Y63.183 E278.65636
G1 X31.169 Y71.899 E279.62486
G1 X30.325 Y71.899 E279.69118
G1 X30.184 Y71.895 E279.70227
G1 X29.877 Y71.879 E279.72642
G1 X22.483 Y64.485 E280.54808
G1 X22.493 Y64.686 E280.56389
G1 X22.512 Y64.879 E280.57913
G1 X22.589 Y65.432 E280.623
G1 X22.63 Y65.654 E280.64074
G1 X22.708 Y65.983 E280.66731
G1 X28.386 Y71.661 E281.29828
G1 X28.084 Y71.584 E281.32277
G1 X27.876 Y71.519 E281.33989
G1 X27.374 Y71.335 E281.3819
G1 X27.139 Y71.237 E281.40191
G1 X26.669 Y71.009 E281.44296
G1 X26.476 Y70.903 E281.46026
G1 X26.165 Y70.712 E281.48894
G1 X26.015 Y70.621 E281.50272
G1 X25.836 Y70.499 E281.51974
G1 X25.394 Y70.162 E281.56342
G1 X25.217 Y70.014 E281.58155
G1 X24.876 Y69.7 E281.61797
G1 X24.738 Y69.569 E281.63292
G1 X24.272 Y69.053 E281.68756
G1 X24.133 Y68.883 E281.70481
G1 X23.81 Y68.444 E281.74764
G1 X23.685 Y68.257 E281.76531
G0 F3900 X23.65 Y68.198
G1 F1980 X26.165 Y70.712 E282.04474
G1 F1680 E279.04474
G0 F3900 X44.332 Y72.172
G1 F1680 E282.04474
G1 F1980 X44.959 Y72.426 E282.09789
G1 X45.548 Y72.756 E282.15094
G1 X46.092 Y73.159 E282.20414
G1 X46.58 Y73.627 E282.25727
G1 X47.007 Y74.152 E282.31045
G1 X47.357 Y74.717 E282.36267
G1 X48.089 Y76.091 E282.485
G1 X54.073 Y82.074 E283.14992
G1 X54.013 Y82.042 E283.15526
G1 X53.933 Y81.998 E283.16243
G1 X53.271 Y81.595 E283.22333
G1 X53.18 Y81.535 E283.2319
G1 X52.746 Y81.206 E283.27469
G1 X52.619 Y81.107 E283.28734
G1 X51.313 Y80.033 E283.42021
