;FLAVOR:Marlin
;TIME:665
;Filament used: 1.09349m
;Layer height: 0.4
;Generated with Cura_SteamEngine 3.5.1
M104 S200
M105
M109 S200
M82 ;absolute extrusion mode
G21 ;metric values
G90 ;absolute positioning
M82 ;set extruder to absolute mode
M107 ;start with the fan off
G28 X0 Y0 ;move X/Y to min endstops
G28 Z0 ;move Z to min endstops
G1 Z15.0 F9000 ;move the platform down 15mm
G92 E0 ;zero the extruded length
G1 F200 E3 ;extrude 3mm of feed stock
G92 E0 ;zero the extruded length again
G1 F9000
;Put printing message on LCD screen
M117 Printing...
G92 E0
G1 F1500 E-6.5
;LAYER_COUNT:14
;LAYER:0
M107
G0 F1500 X53.72 Y68.585 Z0.2
;TYPE:SKIRT
G1 F1500 E0
G1 X54.248 Y68.216 E0.02142
G1 X54.818 Y67.915 E0.04286
G1 X55.421 Y67.687 E0.06431
G1 X56.048 Y67.535 E0.08576
G1 X56.955 Y67.455 E0.11605
G1 X62.092 Y67.453 E0.28691
G1 X62.735 Y67.493 E0.30833
G1 X63.369 Y67.612 E0.32979
G1 X63.796 Y67.74 E0.34461
G1 X70.508 Y70.066 E0.58088
G1 X75.697 Y71.501 E0.75995
G1 X78.286 Y72.099 E0.84832
G1 X83.546 Y73.082 E1.0263
G1 X88.856 Y73.767 E1.20438
G1 X94.231 Y74.153 E1.38361
G1 X99.56 Y74.234 E1.56087
G1 X104.944 Y74.011 E1.7401
G1 X110.267 Y73.488 E1.918
G1 X115.564 Y72.662 E2.0963
G1 X120.834 Y71.534 E2.27555
G1 X123.366 Y70.879 E2.36254
G1 X128.572 Y69.291 E2.54357
G1 X131.905 Y68.107 E2.66121
G1 X132.524 Y67.929 E2.68264
G1 X133.161 Y67.83 E2.70408
G1 X133.685 Y67.807 E2.72152
G1 X140.262 Y67.857 E2.94028
G1 X140.905 Y67.902 E2.96172
G1 X141.537 Y68.026 E2.98314
G1 X142.15 Y68.227 E3.0046
G1 X142.732 Y68.503 E3.02602
G1 X143.277 Y68.849 E3.04749
G1 X143.774 Y69.259 E3.06892
G1 X144.217 Y69.728 E3.09038
G1 X144.598 Y70.248 E3.11182
G1 X144.912 Y70.811 E3.13326
G1 X145.154 Y71.408 E3.15469
G1 X145.32 Y72.031 E3.17613
G1 X145.404 Y72.627 E3.19615
G1 X145.801 Y77.409 E3.35575
G1 X146.357 Y81.938 E3.50751
G1 X147.653 Y89.069 E3.74857
G1 X147.707 Y89.437 E3.76095
G1 X148.136 Y93.386 E3.89306
G1 X148.165 Y93.825 E3.9077
G1 X148.239 Y96.948 E4.0116
G1 X148.24 Y97.106 E4.01685
G1 X148.178 Y106.373 E4.32508
G1 X148.166 Y106.693 E4.33573
G1 X147.667 Y113.976 E4.57853
G1 X147.548 Y114.782 E4.60563
G1 X146.378 Y119.889 E4.77989
G1 X146.12 Y120.702 E4.80826
G1 X145.228 Y122.876 E4.88642
G1 X144.947 Y123.456 E4.90785
G1 X144.497 Y124.126 E4.9347
G1 X142.805 Y126.267 E5.02546
G1 X142.374 Y126.747 E5.04692
G1 X141.672 Y127.327 E5.0772
G1 X140.201 Y128.339 E5.13659
G1 X139.806 Y128.586 E5.15208
G1 X136.741 Y130.312 E5.26908
G1 X135.957 Y130.671 E5.29776
G1 X134.997 Y131.018 E5.33171
G1 X134.412 Y131.192 E5.35201
G1 X130.868 Y132.02 E5.47306
G1 X130.394 Y132.108 E5.48909
G1 X127.602 Y132.492 E5.58283
G1 X126.959 Y132.54 E5.60427
G1 X126.537 Y132.528 E5.61832
G1 X122.923 Y132.28 E5.7388
G1 X122.665 Y132.256 E5.74742
G1 X116.309 Y131.5 E5.96031
G1 X116.154 Y131.479 E5.96551
G1 X110.906 Y130.694 E6.142
G1 X110.804 Y130.678 E6.14544
G1 X105.369 Y129.755 E6.32879
G1 X105.001 Y129.678 E6.3413
G1 X98.929 Y128.188 E6.54925
G1 X96.401 Y127.692 E6.63493
G1 X89.447 Y126.67 E6.86871
G1 X88.946 Y126.571 E6.88569
G1 X86.707 Y126.013 E6.96244
G1 X86.346 Y125.909 E6.97493
G1 X85.085 Y125.496 E7.01907
G1 X84.716 Y125.359 E7.03216
G1 X83.05 Y124.67 E7.09212
G1 X82.541 Y124.427 E7.11088
G1 X80.138 Y123.112 E7.20199
G1 X73.656 Y119.988 E7.44132
G1 X73.233 Y119.76 E7.4573
G1 X71.172 Y118.52 E7.5373
G1 X70.641 Y118.154 E7.55875
G1 X70.16 Y117.725 E7.58018
G1 X69.922 Y117.468 E7.59183
G1 X65.078 Y111.874 E7.83795
G1 X64.519 Y111.093 E7.8699
G1 X61.007 Y105.082 E8.10145
G1 X60.637 Y104.309 E8.12995
G1 X57.413 Y95.841 E8.43132
G1 X57.244 Y95.315 E8.4497
G1 X53.51 Y81.133 E8.93747
G1 X53.462 Y80.932 E8.94434
G1 X51.88 Y73.778 E9.18803
G1 X51.78 Y73.141 E9.20948
G1 X51.759 Y72.497 E9.23091
G1 X51.819 Y71.855 E9.25235
G1 X51.957 Y71.225 E9.2738
G1 X52.173 Y70.617 E9.29527
G1 X52.462 Y70.041 E9.3167
G1 X52.82 Y69.505 E9.33814
G1 X53.241 Y69.017 E9.35957
G1 X53.72 Y68.585 E9.38103
G1 F1500 E2.88103
G0 F1500 X57.706 Y71.977
G0 X57.706 Y73.254
G0 X69.672 Y99.788
G0 X72.999 Y105.036
G0 X76.332 Y108.367
G0 X80.582 Y111.47
G0 X88.932 Y116.85
G0 X88.994 Y116.927
;TYPE:WALL-INNER
G1 F1500 E9.38103
G1 X89.035 Y117.252 E9.39192
G1 X89.445 Y120.443 E9.49893
G1 X89.482 Y120.734 E9.50868
G1 X89.197 Y120.662 E9.51442
G1 X87.482 Y120.225 E9.57328
G1 X85.445 Y119.395 E9.64644
G1 X81.464 Y112.984 E9.89744
G1 X77.833 Y110.333 E10.04697
G1 X77.638 Y110.191 E10.05499
G1 X77.535 Y110.409 E10.05992
G1 X75.725 Y114.248 E10.20109
G1 X75.631 Y114.447 E10.20841
G1 X75.442 Y114.333 E10.21302
G1 X74.23 Y113.602 E10.2601
G1 X69.491 Y108.126 E10.50096
G1 X66.029 Y102.202 E10.72917
G1 X62.874 Y93.941 E11.02329
G1 X60.647 Y85.436 E11.31571
G1 X58.939 Y78.974 E11.53801
G1 X57.743 Y73.484 E11.7249
G1 X57.691 Y73.242 E11.73313
G1 X57.938 Y73.242 E11.73815
G1 X57.939 Y73.242 E11.73818
G1 X61.616 Y73.242 E11.86048
G1 X64.632 Y86.269 E12.30522
G1 X67.179 Y93.449 E12.55861
G1 X69.707 Y99.77 E12.78504
G1 X73.028 Y105.008 E12.99132
G1 X76.363 Y108.342 E13.14816
G1 X81.075 Y111.781 E13.34219
G1 X86.159 Y114.265 E13.53039
G1 X91.857 Y116.348 E13.73217
G1 X96.79 Y117.487 E13.90056
G1 X102.26 Y118.472 E14.08542
G1 X108.092 Y119.37 E14.28168
G1 X120.125 Y121 E14.68555
G1 X125.119 Y121.518 E14.85254
G1 X130.888 Y121.57 E15.04443
G1 X131.61 Y121.473 E15.06866
G1 X134.126 Y121.131 E15.15311
G1 X134.211 Y121.051 E15.15699
G1 X136.437 Y118.951 E15.25878
G1 X137.505 Y116.454 E15.3491
G1 X138.293 Y112.414 E15.48601
G1 X138.739 Y108.047 E15.63201
G1 X138.781 Y87.648 E16.31048
G1 X138.781 Y87.647 E16.31052
G1 X138.781 Y87.221 E16.32469
G1 X139.108 Y87.495 E16.33245
G1 X141.912 Y89.841 E16.45405
G1 X141.979 Y90.259 E16.46813
G1 X142.377 Y93.99 E16.59292
G1 X142.454 Y97.74 E16.71767
G1 X142.425 Y105.573 E16.9782
G1 X141.94 Y113.295 E17.23554
G1 X140.765 Y118.494 E17.41282
G1 X140.127 Y120.05 E17.46876
G1 X140.118 Y120.071 E17.46952
G1 X139.926 Y119.968 E17.47408
G1 X139.919 Y119.985
G1 X139.5 Y120.971 E17.50971
G1 X139.565 Y121.072 E17.5137
G1 X138.316 Y122.613 E17.57968
G1 X137.849 Y122.982 E17.59948
G1 X134.695 Y121.381 E17.71712
G1 X134.287 Y121.437 E17.73082
G1 X134.17 Y121.452 E17.73438
G1 X131.922 Y121.758 E17.80984
G1 X131.654 Y121.794 E17.81884
G1 X131.768 Y122.039 E17.8242
G1 X133.327 Y125.388 E17.94707
G1 X133.345 Y125.427 E17.9485
G1 X133.358 Y125.455 E17.94953
G1 X133.048 Y125.566 E17.9572
G1 X133.006 Y125.576 E17.95854
G1 X130.52 Y126.178 E18.04361
G1 X130.457 Y126.045 E18.0485
G1 X129.146 Y126.035 E18.09211
G1 X129.038 Y126.034 E18.0957
G1 X129.086 Y126.212 E18.10183
G1 X129.143 Y126.429 E18.1093
G1 X128.921 Y126.46 E18.11396
G1 X126.808 Y126.755 E18.18492
G1 X123.799 Y126.536 E18.28527
G1 X123.724 Y126.256 E18.29491
G1 X122.556 Y126.137 E18.33396
G1 X122.497 Y126.41 E18.34325
G1 X117.705 Y125.845 E18.50374
G1 X112.19 Y125.029 E18.68916
G1 X106.604 Y124.091 E18.87755
G1 X106.42 Y123.776 E18.88969
G1 X106.03 Y123.715 E18.90282
G1 X101.36 Y120.019 E19.1009
G1 X98.377 Y119.482 E19.20171
G1 X95.828 Y118.894 E19.28872
G1 X92.824 Y118.325 E19.39041
G1 X89.302 Y117.039 E19.51511
G1 X88.994 Y116.927 E19.52136
G0 X88.932 Y116.85
G0 X120.168 Y120.642
G0 X125.139 Y121.157
G0 X130.865 Y121.209
G0 X133.962 Y120.788
G0 X136.134 Y118.739
G0 X137.159 Y116.347
G0 X137.936 Y112.36
G0 X138.378 Y108.028
G0 X138.42 Y86.41
G0 X135.032 Y81.392
G0 X134.444 Y73.701
G0 X134.444 Y73.601
G1 X139.645 Y73.643 E19.69435
G1 X139.66 Y75.325 E19.75029
G1 X140 Y77.711 E19.83045
G1 X140.026 Y77.953 E19.83855
G1 X134.518 Y80.266 E20.03724
G1 X134.253 Y80.377 E20.0468
G1 X134.243 Y80.363 E20.04737
G1 X134.243 Y80.075 E20.05314
G1 X134.243 Y73.801 E20.26182
G1 X134.243 Y73.8 E20.26185
G1 X134.243 Y73.6 E20.2685
G1 X134.443 Y73.6 E20.27281
G1 X134.444 Y73.601 E20.27286
G0 X134.444 Y73.701
G0 X133.88 Y80.486
G0 X138.42 Y86.41
G0 X138.378 Y108.028
G0 X137.936 Y112.36
G0 X137.159 Y116.347
G0 X136.134 Y118.739
G0 X133.962 Y120.788
G0 X130.865 Y121.209
G0 X125.139 Y121.157
G0 X122.322 Y120.866
G0 X89.644 Y117.06
G0 X89.474 Y117.528
;TYPE:WALL-OUTER
G1 X89.515 Y117.853 E20.28375
G1 X89.917 Y120.976 E20.38848
G1 X89.918 Y120.977 E20.38853
G1 X89.954 Y121.267 E20.39825
G1 X89.67 Y121.195 E20.40396
G1 X87.362 Y120.608 E20.48317
G1 X85.173 Y119.716 E20.56179
G1 X81.165 Y113.261 E20.8145
G1 X77.988 Y110.942 E20.94533
G1 X77.793 Y110.8 E20.95335
G1 X77.69 Y111.018 E20.95828
G1 X75.898 Y114.82 E21.09808
G1 X75.804 Y115.019 E21.1054
G1 X75.615 Y114.905 E21.11001
G1 X73.971 Y113.914 E21.17386
G1 X69.165 Y108.36 E21.41815
G1 X65.665 Y102.372 E21.64883
G1 X62.494 Y94.067 E21.94451
G1 X60.26 Y85.537 E22.23779
G1 X58.549 Y79.064 E22.46047
G1 X57.246 Y73.084 E22.66404
G1 X57.194 Y72.842 E22.67227
G1 X57.441 Y72.842 E22.67729
G1 X57.442 Y72.842 E22.67732
G1 X61.934 Y72.842 E22.82673
G1 X65.017 Y86.157 E23.2813
G1 X67.553 Y93.308 E23.53366
G1 X70.065 Y99.587 E23.75859
G1 X73.342 Y104.756 E23.96215
G1 X76.624 Y108.037 E24.11651
G1 X81.282 Y111.437 E24.30831
G1 X86.316 Y113.896 E24.49465
G1 X91.971 Y115.964 E24.69492
G1 X96.87 Y117.095 E24.86215
G1 X102.326 Y118.077 E25.04653
G1 X108.149 Y118.974 E25.24249
G1 X120.172 Y120.603 E25.64603
G1 X125.141 Y121.118 E25.81218
G1 X130.863 Y121.17 E26.00251
G1 X133.945 Y120.752 E26.10595
G1 X136.102 Y118.717 E26.20458
G1 X137.121 Y116.336 E26.29072
G1 X137.897 Y112.355 E26.42562
G1 X138.339 Y108.026 E26.57036
G1 X138.383 Y86.804 E27.2762
G1 X138.383 Y86.422 E27.28891
G1 X138.309 Y86.326 E27.29294
G1 X138.064 Y86.006 E27.30635
G1 X133.843 Y80.498 E27.53715
G1 X133.843 Y73.398 E27.7733
G1 X133.843 Y73.397 E27.77333
G1 X133.843 Y73.197 E27.77998
G1 X134.043 Y73.197 E27.78429
G1 X134.044 Y73.198 E27.78434
G1 X140.041 Y73.246 E27.9838
G1 X140.06 Y75.295 E28.05196
G1 X140.398 Y77.669 E28.13171
G1 X140.455 Y78.207 E28.14971
G1 X135.105 Y80.453 E28.34269
G1 X134.867 Y80.553 E28.35128
G1 X135.024 Y80.758 E28.35647
G1 X138.548 Y85.355 E28.54913
G1 X138.414 Y85.922 E28.5685
G1 X138.321 Y86.315 E28.5761
G1 X138.409 Y86.389 E28.57629
G1 X138.702 Y86.634 E28.58383
G1 X142.283 Y89.63 E28.73912
G1 X142.377 Y90.217 E28.75889
G1 X142.777 Y93.963 E28.88419
G1 X142.854 Y97.741 E29.00988
G1 X142.825 Y105.583 E29.2707
G1 X142.337 Y113.352 E29.52961
G1 X141.147 Y118.616 E29.70911
G1 X140.329 Y120.613 E29.78089
G1 X140.32 Y120.634 E29.78165
G1 X140.123 Y120.528 E29.78636
G1 X140.116 Y120.546
G1 X139.951 Y120.933 E29.80036
G1 X140.058 Y121.1 E29.80695
G1 X138.599 Y122.899 E29.88399
G1 X137.896 Y123.455 E29.9138
G1 X134.625 Y121.794 E30.03582
G1 X132.514 Y122.081 E30.10668
G1 X132.246 Y122.117 E30.11567
G1 X132.36 Y122.362 E30.12104
G1 X133.814 Y125.486 E30.23565
G1 X133.906 Y125.684 E30.24291
G1 X133.7 Y125.757 E30.24749
G1 X133.165 Y125.949 E30.26639
G1 X130.298 Y126.644 E30.36451
G1 X130.203 Y126.443 E30.3719
G1 X129.648 Y126.439 E30.39036
G1 X129.559 Y126.438 E30.39332
G1 X129.645 Y126.763 E30.40084
G1 X129.606 Y126.768
G1 X126.82 Y127.157 E30.4944
G1 X123.486 Y126.914 E30.60559
G1 X123.409 Y126.626 E30.6155
G1 X122.871 Y126.571 E30.63349
G1 X122.811 Y126.849 E30.64295
G1 X117.646 Y126.241 E30.81592
G1 X112.131 Y125.425 E31.00135
G1 X106.352 Y124.454 E31.19626
G1 X106.17 Y124.142 E31.20827
G1 X105.864 Y124.094 E31.21857
G1 X101.19 Y120.395 E31.41682
G1 X98.298 Y119.875 E31.51455
G1 X95.746 Y119.286 E31.60166
G1 X92.716 Y118.712 E31.70423
G1 X89.782 Y117.64 E31.80813
G1 X89.474 Y117.528 E31.81437
G0 X89.499 Y117.726
G0 X89.003 Y117.788
G0 X88.526 Y116.34
;TYPE:SKIN
G1 X89.023 Y120.215 E31.94431
G1 X87.602 Y119.854 E31.99307
G1 X85.71 Y119.082 E32.06104
G1 X81.755 Y112.713 E32.31039
G1 X81.066 Y112.21 E32.33877
G1 X86.006 Y114.624 E32.52164
G1 X91.746 Y116.722 E32.72491
G1 X96.712 Y117.869 E32.89442
G1 X102.196 Y118.856 E33.07975
G1 X108.036 Y119.756 E33.27629
G1 X120.078 Y121.388 E33.68047
G1 X125.097 Y121.908 E33.84829
G1 X130.913 Y121.96 E34.04174
G1 X131.278 Y121.911 E34.05399
G1 X132.819 Y125.22 E34.1754
G1 X130.737 Y125.724 E34.24664
G1 X130.705 Y125.657 E34.24911
G1 X128.529 Y125.64 E34.32149
G1 X128.653 Y126.104 E34.33746
G1 X126.791 Y126.363 E34.39999
G1 X124.104 Y126.168 E34.4896
G1 X124.031 Y125.895 E34.49899
G1 X122.248 Y125.714 E34.5586
G1 X122.19 Y125.981 E34.56769
G1 X117.75 Y125.457 E34.71639
G1 X112.247 Y124.643 E34.90141
G1 X106.85 Y123.738 E35.08342
G1 X106.664 Y123.419 E35.0957
G1 X106.191 Y123.345 E35.11163
G1 X101.526 Y119.652 E35.30952
G1 X98.452 Y119.099 E35.4134
G1 X95.908 Y118.512 E35.50024
G1 X92.922 Y117.946 E35.60132
G1 X88.526 Y116.34 E35.75699
G0 X77.47 Y109.632
G1 X75.462 Y113.89 E35.91357
G1 X74.485 Y113.3 E35.95153
G1 X69.811 Y107.9 E36.18907
G1 X66.38 Y102.029 E36.41524
G1 X63.246 Y93.823 E36.7074
G1 X61.024 Y85.337 E36.99916
G1 X59.316 Y78.875 E37.22147
G1 X58.175 Y73.632 E37.39993
G1 X61.306 Y73.632 E37.50407
G1 X64.257 Y86.378 E37.93921
G1 X66.814 Y93.587 E38.19362
G1 X69.358 Y99.948 E38.42148
G1 X72.722 Y105.254 E38.63044
G1 X76.109 Y108.639 E38.78971
G1 X77.47 Y109.632 E38.84574
G0 X74.832 Y113.299
G1 X74.02 Y112.487 E38.88394
G1 X73.95 Y112.417
G0 X75.496 Y113.397
G1 X70.379 Y108.279 E39.12465
G1 X70.309 Y108.209
G0 X69.255 Y106.59
G1 X75.677 Y113.012 E39.42672
G0 X75.859 Y112.628
G1 X68.458 Y105.228 E39.77482
G1 X68.388 Y105.158
G0 X67.662 Y103.866
G1 X76.04 Y112.244 E40.16889
G0 X76.221 Y111.859
G1 X66.866 Y102.504 E40.60892
G1 X66.796 Y102.434
G0 X66.334 Y101.406
G1 X76.402 Y111.475 E41.08251
G0 X76.583 Y111.09
G1 X65.985 Y100.491 E41.58103
G1 X65.915 Y100.421
G0 X65.635 Y99.576
G1 X76.764 Y110.706 E42.10453
G0 X76.946 Y110.322
G1 X65.285 Y98.661 E42.65303
G1 X65.215 Y98.591
G0 X64.936 Y97.746
G1 X77.127 Y109.937 E43.22646
G1 X77.197 Y110.007
G0 X77.545 Y110.125
G0 X82.624 Y113.171
G1 X88.721 Y119.268 E43.51324
G0 X88.804 Y119.917
G1 X82.566 Y113.679 E43.80666
G1 X82.496 Y113.609
G0 X83.729 Y113.711
G1 X88.637 Y118.619 E44.03752
G0 X88.554 Y117.97
G1 X84.835 Y114.251 E44.21245
G1 X84.765 Y114.181
G0 X85.94 Y114.79
G1 X88.471 Y117.321 E44.3315
G0 X88.387 Y116.671
G1 X86.832 Y115.116 E44.40464
G1 X86.762 Y115.046
G0 X87.723 Y115.442
G0 X88.047 Y115.766
G1 X88.939 Y116.091 E44.44466
G1 X92.462 Y117.352 E44.60239
G1 X98.236 Y118.601 E44.85142
G1 X100.995 Y119.097 E44.96959
G0 X101.351 Y118.887
G1 X103.251 Y120.787 E45.05896
G1 X103.321 Y120.857
G0 X103.38 Y119.219
G1 X107.891 Y123.73 E45.27114
G0 X108.57 Y123.844
G1 X104.049 Y119.322 E45.48382
G0 X104.718 Y119.426
G1 X109.25 Y123.957 E45.69697
G0 X109.929 Y124.071
G1 X105.387 Y119.529 E45.91061
G0 X106.055 Y119.631
G1 X110.608 Y124.184 E46.12477
G0 X111.288 Y124.298
G1 X106.724 Y119.735 E46.33942
G0 X107.393 Y119.838
G1 X111.967 Y124.412 E46.55457
G0 X112.638 Y124.517
G1 X108.06 Y119.94 E46.76988
G0 X108.715 Y120.029
G1 X113.302 Y124.616 E46.98564
G0 X113.966 Y124.714
G1 X109.369 Y120.117 E47.20187
G0 X110.023 Y120.206
G1 X114.63 Y124.812 E47.41854
G0 X115.293 Y124.91
G1 X110.678 Y120.295 E47.63562
G0 X111.332 Y120.383
G1 X115.957 Y125.008 E47.85317
G0 X116.621 Y125.106
G1 X111.987 Y120.472 E48.07113
G0 X112.641 Y120.56
G1 X117.285 Y125.205 E48.2896
G0 X117.943 Y125.297
G1 X113.296 Y120.65 E48.50818
G0 X113.95 Y120.738
G1 X118.584 Y125.372 E48.72615
G0 X119.225 Y125.448
G1 X114.604 Y120.826 E48.94353
G0 X115.259 Y120.915
G1 X119.868 Y125.524 E49.16032
G0 X120.509 Y125.6
G1 X115.913 Y121.004 E49.3765
G0 X116.567 Y121.093
G1 X121.15 Y125.676 E49.59207
G0 X121.792 Y125.751
G1 X117.222 Y121.181 E49.80703
G0 X117.876 Y121.27
G1 X122.125 Y125.519 E50.00689
G0 X122.755 Y125.584
G1 X118.53 Y121.359 E50.20562
G0 X119.184 Y121.447
G1 X123.385 Y125.647 E50.4032
G0 X124.015 Y125.712
G1 X119.839 Y121.536 E50.59963
G0 X120.478 Y121.609
G1 X124.914 Y126.046 E50.80831
G0 X125.524 Y126.09
G1 X121.109 Y121.675 E51.01598
G0 X121.74 Y121.74
G1 X126.135 Y126.135 E51.2227
G0 X126.745 Y126.179
G1 X122.371 Y121.806 E51.42842
G0 X123.003 Y121.871
G1 X127.248 Y126.117 E51.62811
G0 X127.745 Y126.048
G1 X123.634 Y121.937 E51.82148
G0 X124.265 Y122.002
G1 X128.241 Y125.978 E52.0085
G0 X128.296 Y125.467
G1 X124.896 Y122.067 E52.16843
G0 X125.485 Y122.091
G1 X128.856 Y125.461 E52.32697
G0 X129.426 Y125.466
G1 X126.056 Y122.096 E52.48548
G0 X126.627 Y122.101
